.storybook/public/favicon.svg

<svg xmlns="http://www.w3.org/2000/svg" xmlns:xlink="http://www.w3.org/1999/xlink" width="128" height="128" version="1.1" style="shape-rendering:geometricPrecision;text-rendering:geometricPrecision;image-rendering:optimizeQuality;fill-rule:evenodd;clip-rule:evenodd"><g><path style="opacity:.987" fill="#02d27b" d="M 52.5,-0.5 C 59.8333,-0.5 67.1667,-0.5 74.5,-0.5C 103.176,6.17555 120.842,23.8422 127.5,52.5C 127.5,59.8333 127.5,67.1667 127.5,74.5C 120.824,103.176 103.158,120.842 74.5,127.5C 67.1667,127.5 59.8333,127.5 52.5,127.5C 23.8245,120.824 6.15779,103.158 -0.5,74.5C -0.5,67.1667 -0.5,59.8333 -0.5,52.5C 6.17555,23.8245 23.8422,6.15779 52.5,-0.5 Z"/></g><g><path style="opacity:1" fill="#003224" d="M 54.5,13.5 C 67.7762,12.4538 80.1096,15.2872 91.5,22C 95.7658,25.5265 95.2658,28.0265 90,29.5C 81.1375,24.6574 71.6375,21.9907 61.5,21.5C 39.5918,23.9082 26.4251,35.9082 22,57.5C 21.3677,63.2142 21.701,68.8809 23,74.5C 24.7777,79.8816 26.9444,85.0483 29.5,90C 29.2547,93.2545 27.588,94.5879 24.5,94C 16.9667,84.5683 13.3001,73.7349 13.5,61.5C 16.408,36.262 30.0747,20.262 54.5,13.5 Z"/></g><g><path style="opacity:1" fill="#003224" d="M 99.5,33.5 C 101.722,33.178 103.556,33.8446 105,35.5C 116.206,54.1149 116.206,72.7816 105,91.5C 101.507,94.5018 99.0067,93.8351 97.5,89.5C 107.994,72.2856 107.994,55.1189 97.5,38C 98.0439,36.415 98.7106,34.915 99.5,33.5 Z"/></g><g><path style="opacity:1" fill="#003023" d="M 80.5,48.5 C 73.1667,48.5 65.8333,48.5 58.5,48.5C 58.5,51.8333 58.5,55.1667 58.5,58.5C 64.5,58.5 70.5,58.5 76.5,58.5C 76.5,61.8333 76.5,65.1667 76.5,68.5C 70.8333,68.5 65.1667,68.5 59.5,68.5C 58.5206,71.6248 58.1872,74.9581 58.5,78.5C 65.8333,78.5 73.1667,78.5 80.5,78.5C 80.5,81.8333 80.5,85.1667 80.5,88.5C 68.8333,88.5 57.1667,88.5 45.5,88.5C 45.5,71.8333 45.5,55.1667 45.5,38.5C 57.5,38.5 69.5,38.5 81.5,38.5C 81.8128,42.0419 81.4794,45.3752 80.5,48.5 Z"/></g><g><path style="opacity:1" fill="#019459" d="M 80.5,48.5 C 73.6866,49.4912 66.6866,49.8245 59.5,49.5C 59.5,52.1667 59.5,54.8333 59.5,57.5C 65.358,57.1778 71.0247,57.5111 76.5,58.5C 70.5,58.5 64.5,58.5 58.5,58.5C 58.5,55.1667 58.5,51.8333 58.5,48.5C 65.8333,48.5 73.1667,48.5 80.5,48.5 Z"/></g><g><path style="opacity:1" fill="#01995c" d="M 59.5,68.5 C 59.5,71.5 59.5,74.5 59.5,77.5C 66.8333,77.5 74.1667,77.5 81.5,77.5C 81.815,81.3714 81.4816,85.0381 80.5,88.5C 80.5,85.1667 80.5,81.8333 80.5,78.5C 73.1667,78.5 65.8333,78.5 58.5,78.5C 58.1872,74.9581 58.5206,71.6248 59.5,68.5 Z"/></g><g><path style="opacity:1" fill="#003224" d="M 35.5,97.5 C 41.0895,99.6183 46.7562,101.785 52.5,104C 59.8265,105.941 67.1598,105.941 74.5,104C 79.505,101.83 84.505,99.6638 89.5,97.5C 93.8351,99.0067 94.5018,101.507 91.5,105C 74.173,115.31 56.5063,115.976 38.5,107C 33.342,105.03 32.342,101.863 35.5,97.5 Z"/></g></svg>

<svg xmlns="http://www.w3.org/2000/svg" width="128" height="128" fill-rule="evenodd" clip-rule="evenodd" image-rendering="optimizeQuality" shape-rendering="geometricPrecision" text-rendering="geometricPrecision">
  <path fill="#02d27b" d="M52.5-.5h22q43.014 10.013 53 53v22q-10.014 43.014-53 53h-22q-43.013-10.014-53-53v-22q10.013-43.013 53-53" opacity=".987"/>
  <path fill="#003224" d="M54.5 13.5q19.914-1.57 37 8.5 6.399 5.289-1.5 7.5-13.293-7.265-28.5-8-32.862 3.612-39.5 36a50.4 50.4 0 0 0 1 17A107 107 0 0 0 29.5 90q-.368 4.882-5 4-11.3-14.148-11-32.5 4.362-37.857 41-48m45 20q3.334-.483 5.5 2 16.809 27.923 0 56-5.24 4.503-7.5-2 15.741-25.821 0-51.5a27.6 27.6 0 0 1 2-4.5"/>
  <path fill="#003023" d="M80.5 48.5h-22v10h18v10h-17q-1.47 4.687-1 10h22v10h-35v-50h36q.47 5.313-1 10"/>
  <path fill="#019459" d="M80.5 48.5q-10.22 1.487-21 1v8q8.787-.483 17 1h-18v-10z"/>
  <path fill="#01995c" d="M59.5 68.5v9h22q.473 5.807-1 11v-10h-22q-.47-5.313 1-10"/>
  <path fill="#003224" d="M35.5 97.5q8.385 3.177 17 6.5 10.99 2.911 22 0l15-6.5q6.503 2.26 2 7.5-25.99 15.465-53 2-7.737-2.955-3-9.5"/>
</svg>
